svgs/sharp-regular/camera-polaroid.svg

<svg xmlns="http://www.w3.org/2000/svg" viewBox="0 0 576 512"><!--! Font Awesome Pro 6.4.0 by @fontawesome - https://fontawesome.com License - https://fontawesome.com/license (Commercial License) Copyright 2023 Fonticons, Inc. --><path d="M464 270.5V256 80H112V256v14.5l-8.1 12.1L68.4 336H507.6l-35.6-53.4L464 270.5zM528 384H48v48H528V384zm48-32v80 48H528 48 0V432 352l64-96V80 32h48H464h48V80 256l64 96zM432 112v48H384V112h48zM288 128a80 80 0 1 1 0 160 80 80 0 1 1 0-160zm32 80a32 32 0 1 0 -64 0 32 32 0 1 0 64 0z"/></svg>

<svg xmlns="http://www.w3.org/2000/svg" viewBox="0 0 576 512"><!--! Font Awesome Pro 6.6.0 by @fontawesome - https://fontawesome.com License - https://fontawesome.com/license (Commercial License) Copyright 2024 Fonticons, Inc. --><path d="M464 270.5l0-14.5 0-176L112 80l0 176 0 14.5-8.1 12.1L68.4 336l439.3 0-35.6-53.4L464 270.5zM528 384L48 384l0 48 480 0 0-48zm48-32l0 80 0 48-48 0L48 480 0 480l0-48 0-80 64-96L64 80l0-48 48 0 352 0 48 0 0 48 0 176 64 96zM432 112l0 48-48 0 0-48 48 0zM288 128a80 80 0 1 1 0 160 80 80 0 1 1 0-160zm32 80a32 32 0 1 0 -64 0 32 32 0 1 0 64 0z"/></svg>
